X: 1092
M: 2/4
L: 1/8
K: D
de fg | ag/b/ a2 | Ag f2 | Af d2 |\
de fg | {g}ag/b/ a2 | A{f}g A{f}g | d2 z2 H:|\
d'c' b2 | ee/e/ ee | c'b a2 | ee/e/ ee |
d'c' b2 | ee/e/ ee | c'b a2 | ee/e/ "^da Capo"e ]\

